src/assets/loading-moving-car.svg

<svg id="egu6kZbeQl11" xmlns="http://www.w3.org/2000/svg" xmlns:xlink="http://www.w3.org/1999/xlink" viewBox="0 0 700 400" shape-rendering="geometricPrecision" text-rendering="geometricPrecision" width="700" height="400" style="background-color:rgb(18,57,12)"><style><![CDATA[#egu6kZbeQl17_to {animation: egu6kZbeQl17_to__to 800ms linear infinite normal forwards}@keyframes egu6kZbeQl17_to__to { 0% {transform: translate(0.000368px,-0.000006px)} 16.666667% {transform: translate(0.000368px,6.212963px)} 33.333333% {transform: translate(0.000368px,-0.000006px)} 50% {transform: translate(0.000368px,6.212963px)} 66.666667% {transform: translate(0.000368px,-0.000006px)} 83.333333% {transform: translate(0.000368px,6.212963px)} 100% {transform: translate(0.000368px,-0.000006px)}} #egu6kZbeQl113 {animation: egu6kZbeQl113_s_do 800ms linear infinite normal forwards}@keyframes egu6kZbeQl113_s_do { 0% {stroke-dashoffset: 26.775} 100% {stroke-dashoffset: 157}}]]></style><g id="egu6kZbeQl12" transform="matrix(0.157536 0 0 0.157536 300.37616 164.678418)"><g id="egu6kZbeQl13" transform="matrix(1 0 0 1 39.278381 -100.462463)"><ellipse id="egu6kZbeQl14" rx="65" ry="65" transform="matrix(0.695869 0 0 0.695869 174.769 375.231)" fill="none" stroke="rgb(255,255,255)" stroke-width="16"/><ellipse id="egu6kZbeQl15" rx="65" ry="65" transform="matrix(0.695869 0 0 0.695869 393.215 375.231)" fill="none" stroke="rgb(255,255,255)" stroke-width="16"/><g id="egu6kZbeQl16" transform="matrix(1 0 0 1 280.68 299.444)"><g id="egu6kZbeQl17_to" transform="translate(0.000368,-0.000006)"><g id="egu6kZbeQl17" transform="translate(-280.680368,-299.443994)"><path id="egu6kZbeQl18" d="M438.446659,375.231462L460,375.231462L460,340L450,340L450,300Q450.239724,290,430,290Q409.760276,290,340,290L310.210486,218.887982L128.135197,218.887982L110.574524,289.016312" transform="matrix(1 0 0 1 0.721612 0)" fill="none" stroke="rgb(255,255,255)" stroke-width="11" stroke-linejoin="round"/><path id="egu6kZbeQl19" d="M129.537077,380L100,380L100,350L110,350L110,290L190,290Q220.748038,290.39648,250,310Q250,310,320,310L340,290" transform="matrix(1 0 0 1 0.639119 0)" fill="none" stroke="rgb(255,255,255)" stroke-width="11" stroke-linejoin="round"/><path id="egu6kZbeQl110" d="M193.560071,223.466685L193.560071,287.193036" fill="none" stroke="rgb(255,255,255)" stroke-width="11"/><path id="egu6kZbeQl111" d="M220,375.231462L347.983736,375.231462" fill="none" stroke="rgb(255,255,255)" stroke-width="11" stroke-miterlimit="14"/><path id="egu6kZbeQl112" d="M249.425929,331.738372L279.202363,331.738372" fill="none" stroke="rgb(255,255,255)" stroke-width="11"/></g></g></g></g><path id="egu6kZbeQl113" d="M-140.797637,329.307071L309.202363,329.307071" transform="matrix(1 0 0 1 230.797637 0.692929)" fill="none" stroke="rgb(255,255,255)" stroke-width="11" stroke-linecap="round" stroke-dashoffset="26.775" stroke-dasharray="10,50,40,30"/></g></svg>

<svg xmlns="http://www.w3.org/2000/svg" shape-rendering="geometricPrecision" width="700" height="400" style="background-color:rgb(0,108,147)" xmlns:v="https://vecta.io/nano"><style><![CDATA[#A{animation:egu6kZbeQl17_to__to 800ms linear infinite normal forwards}#B{animation:egu6kZbeQl113_s_do 800ms linear infinite normal forwards}@keyframes egu6kZbeQl17_to__to{0%{transform:translate(0.000368px,-0.000006px)}16.666667%{transform:translate(0.000368px,6.212963px)}33.333333%{transform:translate(0.000368px,-0.000006px)}50%{transform:translate(0.000368px,6.212963px)}66.666667%{transform:translate(0.000368px,-0.000006px)}83.333333%{transform:translate(0.000368px,6.212963px)}100%{transform:translate(0.000368px,-0.000006px)}} @keyframes egu6kZbeQl113_s_do{0%{stroke-dashoffset:26.775}100%{stroke-dashoffset:157}}.B{stroke:#fff}.C{fill:none}.D{stroke-width:11}.E{stroke-linejoin:round}]]></style><g transform="matrix(.157536 0 0 .157536 300.37616 164.678418)" class="B C"><g stroke-width="16"><circle transform="matrix(.695869 0 0 .695869 214.047 274.769)" r="65"/><circle transform="matrix(.695869 0 0 .695869 432.493 274.769)" r="65"/></g><g transform="translate(319.958 198.982)" class="D"><g id="A"><g transform="translate(-280.68 -299.444)"><path d="M438.447 375.231H460V340h-10v-40q.24-10-20-10-20.24 0-90 0l-29.79-71.112H128.135l-17.561 70.128" transform="translate(.722)" class="E"/><path d="M129.537 380H100v-30h10v-60h80q30.748.396 60 20 0 0 70 0l20-20" transform="translate(.639)" class="E"/><path d="M193.56 223.467v63.726"/><path d="M220 375.231h127.984" stroke-miterlimit="14"/><path d="M249.426 331.738h29.776"/></g></g></g><path id="B" d="M-140.798 329.307h450" transform="translate(230.798 .693)" stroke-linecap="round" stroke-dashoffset="26.775" stroke-dasharray="10,50,40,30" class="D"/></g></svg>
